src/lib/images/svgs/icon-ram.svg

<?xml version="1.0" encoding="UTF-8"?> <svg xmlns="http://www.w3.org/2000/svg" xmlns:xlink="http://www.w3.org/1999/xlink" width="64px" height="64px" viewBox="0 0 64 64" version="1.1"> <g id="surface1"> <path style=" stroke:none;fill-rule:nonzero;fill:rgb(93.72549%,26.666667%,26.666667%);fill-opacity:1;" d="M 56.460938 40.929688 L 47.527344 40.929688 C 47.214844 40.929688 46.957031 40.675781 46.957031 40.363281 L 46.960938 40.050781 C 46.960938 39.738281 46.839844 39.445312 46.617188 39.230469 C 46.398438 39.007812 46.105469 38.886719 45.796875 38.886719 C 45.15625 38.886719 44.632812 39.410156 44.632812 40.050781 L 44.632812 40.363281 C 44.632812 40.675781 44.378906 40.929688 44.066406 40.929688 L 33.730469 40.929688 C 33.417969 40.929688 33.164062 40.675781 33.164062 40.363281 L 33.164062 40.050781 C 33.164062 39.738281 33.042969 39.445312 32.820312 39.230469 C 32.601562 39.007812 32.308594 38.886719 32 38.886719 C 31.359375 38.886719 30.835938 39.410156 30.835938 40.050781 L 30.835938 40.363281 C 30.835938 40.675781 30.582031 40.929688 30.269531 40.929688 L 19.933594 40.929688 C 19.621094 40.929688 19.367188 40.675781 19.367188 40.363281 L 19.367188 40.050781 C 19.367188 39.738281 19.246094 39.445312 19.023438 39.230469 C 18.804688 39.007812 18.511719 38.886719 18.203125 38.886719 C 17.5625 38.886719 17.039062 39.410156 17.039062 40.050781 L 17.039062 40.363281 C 17.039062 40.675781 16.785156 40.929688 16.472656 40.929688 L 7.539062 40.929688 C 7.222656 40.929688 6.96875 40.675781 6.96875 40.363281 L 6.96875 29.191406 C 6.96875 28.878906 7.222656 28.621094 7.539062 28.621094 L 7.847656 28.621094 C 8.160156 28.621094 8.453125 28.5 8.671875 28.28125 C 8.890625 28.0625 9.011719 27.769531 9.011719 27.460938 C 9.011719 26.816406 8.492188 26.296875 7.847656 26.296875 L 7.539062 26.296875 C 7.222656 26.296875 6.96875 26.042969 6.96875 25.726562 L 6.96875 15.136719 C 6.96875 14.820312 7.222656 14.566406 7.539062 14.566406 L 56.460938 14.566406 C 56.777344 14.566406 57.03125 14.820312 57.03125 15.136719 L 57.03125 25.726562 C 57.03125 26.042969 56.777344 26.296875 56.460938 26.296875 L 56.148438 26.296875 C 55.839844 26.296875 55.546875 26.417969 55.328125 26.636719 C 55.109375 26.855469 54.988281 27.148438 54.988281 27.460938 C 54.988281 28.101562 55.507812 28.621094 56.148438 28.621094 L 56.460938 28.621094 C 56.777344 28.621094 57.03125 28.878906 57.03125 29.191406 L 57.03125 40.363281 C 57.03125 40.675781 56.777344 40.929688 56.460938 40.929688 Z M 48.082031 39.792969 L 55.894531 39.792969 L 55.894531 29.746094 C 54.746094 29.617188 53.847656 28.640625 53.847656 27.457031 C 53.847656 26.84375 54.089844 26.265625 54.523438 25.832031 C 54.894531 25.457031 55.375 25.226562 55.894531 25.171875 L 55.894531 15.703125 L 8.105469 15.703125 L 8.105469 25.171875 C 9.253906 25.300781 10.148438 26.277344 10.148438 27.457031 C 10.148438 28.070312 9.910156 28.652344 9.476562 29.085938 C 9.105469 29.457031 8.625 29.6875 8.105469 29.746094 L 8.105469 39.792969 L 15.917969 39.792969 C 16.046875 38.644531 17.023438 37.746094 18.203125 37.746094 C 18.820312 37.746094 19.398438 37.988281 19.832031 38.421875 C 20.203125 38.792969 20.433594 39.273438 20.488281 39.789062 L 29.714844 39.789062 C 29.84375 38.644531 30.816406 37.746094 32 37.746094 C 32.613281 37.746094 33.191406 37.984375 33.625 38.421875 C 34 38.792969 34.230469 39.273438 34.285156 39.789062 L 43.511719 39.789062 C 43.640625 38.644531 44.613281 37.746094 45.796875 37.746094 C 46.410156 37.746094 46.988281 37.984375 47.425781 38.421875 C 47.796875 38.792969 48.027344 39.273438 48.085938 39.792969 Z M 54.925781 26.234375 Z M 54.925781 26.234375 "/> <path style=" stroke:none;fill-rule:nonzero;fill:rgb(93.72549%,26.666667%,26.666667%);fill-opacity:1;" d="M 54.242188 15.703125 C 53.929688 15.703125 53.671875 15.449219 53.671875 15.132812 L 53.671875 11.40625 L 10.328125 11.40625 L 10.328125 15.132812 C 10.328125 15.449219 10.074219 15.703125 9.757812 15.703125 C 9.445312 15.703125 9.191406 15.449219 9.191406 15.132812 L 9.191406 10.839844 C 9.191406 10.523438 9.445312 10.269531 9.757812 10.269531 L 54.242188 10.269531 C 54.554688 10.269531 54.8125 10.523438 54.8125 10.839844 L 54.8125 15.132812 C 54.808594 15.449219 54.554688 15.703125 54.242188 15.703125 Z M 54.242188 15.703125 "/> <path style=" stroke:none;fill-rule:nonzero;fill:rgb(93.72549%,26.666667%,26.666667%);fill-opacity:1;" d="M 15.621094 13.304688 C 15.304688 13.304688 15.050781 13.046875 15.050781 12.734375 L 15.050781 10.839844 C 15.050781 10.523438 15.304688 10.269531 15.621094 10.269531 C 15.933594 10.269531 16.1875 10.523438 16.1875 10.839844 L 16.1875 12.734375 C 16.1875 13.046875 15.933594 13.304688 15.621094 13.304688 Z M 15.621094 13.304688 "/> <path style=" stroke:none;fill-rule:nonzero;fill:rgb(93.72549%,26.666667%,26.666667%);fill-opacity:1;" d="M 21.078125 13.304688 C 20.765625 13.304688 20.511719 13.046875 20.511719 12.734375 L 20.511719 10.839844 C 20.511719 10.523438 20.765625 10.269531 21.078125 10.269531 C 21.394531 10.269531 21.648438 10.523438 21.648438 10.839844 L 21.648438 12.734375 C 21.648438 13.046875 21.394531 13.304688 21.078125 13.304688 Z M 21.078125 13.304688 "/> <path style=" stroke:none;fill-rule:nonzero;fill:rgb(93.72549%,26.666667%,26.666667%);fill-opacity:1;" d="M 26.539062 13.304688 C 26.226562 13.304688 25.972656 13.046875 25.972656 12.734375 L 25.972656 10.839844 C 25.972656 10.523438 26.226562 10.269531 26.539062 10.269531 C 26.855469 10.269531 27.109375 10.523438 27.109375 10.839844 L 27.109375 12.734375 C 27.109375 13.046875 26.855469 13.304688 26.539062 13.304688 Z M 26.539062 13.304688 "/> <path style=" stroke:none;fill-rule:nonzero;fill:rgb(93.72549%,26.666667%,26.666667%);fill-opacity:1;" d="M 32 13.304688 C 31.6875 13.304688 31.429688 13.046875 31.429688 12.734375 L 31.429688 10.839844 C 31.429688 10.523438 31.6875 10.269531 32 10.269531 C 32.3125 10.269531 32.570312 10.523438 32.570312 10.839844 L 32.570312 12.734375 C 32.570312 13.046875 32.3125 13.304688 32 13.304688 Z M 32 13.304688 "/> <path style=" stroke:none;fill-rule:nonzero;fill:rgb(93.72549%,26.666667%,26.666667%);fill-opacity:1;" d="M 37.460938 13.304688 C 37.144531 13.304688 36.890625 13.046875 36.890625 12.734375 L 36.890625 10.839844 C 36.890625 10.523438 37.144531 10.269531 37.460938 10.269531 C 37.773438 10.269531 38.027344 10.523438 38.027344 10.839844 L 38.027344 12.734375 C 38.027344 13.046875 37.773438 13.304688 37.460938 13.304688 Z M 37.460938 13.304688 "/> <path style=" stroke:none;fill-rule:nonzero;fill:rgb(93.72549%,26.666667%,26.666667%);fill-opacity:1;" d="M 42.921875 13.304688 C 42.605469 13.304688 42.351562 13.046875 42.351562 12.734375 L 42.351562 10.839844 C 42.351562 10.523438 42.605469 10.269531 42.921875 10.269531 C 43.234375 10.269531 43.488281 10.523438 43.488281 10.839844 L 43.488281 12.734375 C 43.488281 13.046875 43.234375 13.304688 42.921875 13.304688 Z M 42.921875 13.304688 "/> <path style=" stroke:none;fill-rule:nonzero;fill:rgb(93.72549%,26.666667%,26.666667%);fill-opacity:1;" d="M 48.378906 13.304688 C 48.066406 13.304688 47.8125 13.046875 47.8125 12.734375 L 47.8125 10.839844 C 47.8125 10.523438 48.066406 10.269531 48.378906 10.269531 C 48.695312 10.269531 48.949219 10.523438 48.949219 10.839844 L 48.949219 12.734375 C 48.949219 13.046875 48.695312 13.304688 48.378906 13.304688 Z M 48.378906 13.304688 "/> <path style=" stroke:none;fill-rule:nonzero;fill:rgb(93.72549%,26.666667%,26.666667%);fill-opacity:1;" d="M 21.808594 35.671875 L 14.601562 35.671875 C 14.285156 35.671875 14.03125 35.414062 14.03125 35.101562 L 14.03125 20.394531 C 14.03125 20.078125 14.285156 19.824219 14.601562 19.824219 L 21.808594 19.824219 C 22.121094 19.824219 22.375 20.078125 22.375 20.394531 L 22.375 35.101562 C 22.375 35.414062 22.121094 35.671875 21.808594 35.671875 Z M 15.167969 34.53125 L 21.238281 34.53125 L 21.238281 20.964844 L 15.167969 20.964844 Z M 15.167969 34.53125 "/> <path style=" stroke:none;fill-rule:nonzero;fill:rgb(93.72549%,26.666667%,26.666667%);fill-opacity:1;" d="M 23.773438 23.292969 L 21.808594 23.292969 C 21.492188 23.292969 21.238281 23.039062 21.238281 22.722656 C 21.238281 22.410156 21.492188 22.15625 21.808594 22.15625 L 23.773438 22.15625 C 24.085938 22.15625 24.34375 22.410156 24.34375 22.722656 C 24.34375 23.039062 24.089844 23.292969 23.773438 23.292969 Z M 23.773438 23.292969 "/> <path style=" stroke:none;fill-rule:nonzero;fill:rgb(93.72549%,26.666667%,26.666667%);fill-opacity:1;" d="M 14.601562 23.292969 L 12.488281 23.292969 C 12.175781 23.292969 11.917969 23.039062 11.917969 22.722656 C 11.917969 22.410156 12.175781 22.15625 12.488281 22.15625 L 14.601562 22.15625 C 14.914062 22.15625 15.167969 22.410156 15.167969 22.722656 C 15.167969 23.039062 14.914062 23.292969 14.601562 23.292969 Z M 14.601562 23.292969 "/> <path style=" stroke:none;fill-rule:nonzero;fill:rgb(93.72549%,26.666667%,26.666667%);fill-opacity:1;" d="M 23.773438 28.316406 L 21.808594 28.316406 C 21.492188 28.316406 21.238281 28.0625 21.238281 27.75 C 21.238281 27.433594 21.492188 27.179688 21.808594 27.179688 L 23.773438 27.179688 C 24.085938 27.179688 24.34375 27.433594 24.34375 27.75 C 24.34375 28.0625 24.089844 28.316406 23.773438 28.316406 Z M 23.773438 28.316406 "/> <path style=" stroke:none;fill-rule:nonzero;fill:rgb(93.72549%,26.666667%,26.666667%);fill-opacity:1;" d="M 14.601562 28.316406 L 12.488281 28.316406 C 12.175781 28.316406 11.917969 28.0625 11.917969 27.75 C 11.917969 27.433594 12.175781 27.179688 12.488281 27.179688 L 14.601562 27.179688 C 14.914062 27.179688 15.167969 27.433594 15.167969 27.75 C 15.167969 28.0625 14.914062 28.316406 14.601562 28.316406 Z M 14.601562 28.316406 "/> <path style=" stroke:none;fill-rule:nonzero;fill:rgb(93.72549%,26.666667%,26.666667%);fill-opacity:1;" d="M 23.773438 33.339844 L 21.808594 33.339844 C 21.492188 33.339844 21.238281 33.085938 21.238281 32.769531 C 21.238281 32.457031 21.492188 32.203125 21.808594 32.203125 L 23.773438 32.203125 C 24.085938 32.203125 24.34375 32.457031 24.34375 32.769531 C 24.34375 33.085938 24.089844 33.339844 23.773438 33.339844 Z M 23.773438 33.339844 "/> <path style=" stroke:none;fill-rule:nonzero;fill:rgb(93.72549%,26.666667%,26.666667%);fill-opacity:1;" d="M 14.601562 33.339844 L 12.488281 33.339844 C 12.175781 33.339844 11.917969 33.085938 11.917969 32.769531 C 11.917969 32.457031 12.175781 32.203125 12.488281 32.203125 L 14.601562 32.203125 C 14.914062 32.203125 15.167969 32.457031 15.167969 32.769531 C 15.167969 33.085938 14.914062 33.339844 14.601562 33.339844 Z M 14.601562 33.339844 "/> <path style=" stroke:none;fill-rule:nonzero;fill:rgb(93.72549%,26.666667%,26.666667%);fill-opacity:1;" d="M 35.675781 35.671875 L 28.46875 35.671875 C 28.15625 35.671875 27.898438 35.414062 27.898438 35.101562 L 27.898438 20.394531 C 27.898438 20.078125 28.15625 19.824219 28.46875 19.824219 L 35.675781 19.824219 C 35.992188 19.824219 36.246094 20.078125 36.246094 20.394531 L 36.246094 35.101562 C 36.246094 35.414062 35.992188 35.671875 35.675781 35.671875 Z M 29.039062 34.53125 L 35.109375 34.53125 L 35.109375 20.964844 L 29.039062 20.964844 Z M 29.039062 34.53125 "/> <path style=" stroke:none;fill-rule:nonzero;fill:rgb(93.72549%,26.666667%,26.666667%);fill-opacity:1;" d="M 37.640625 23.292969 L 35.675781 23.292969 C 35.363281 23.292969 35.105469 23.039062 35.105469 22.722656 C 35.105469 22.410156 35.363281 22.15625 35.675781 22.15625 L 37.640625 22.15625 C 37.957031 22.15625 38.210938 22.410156 38.210938 22.722656 C 38.210938 23.039062 37.957031 23.292969 37.640625 23.292969 Z M 37.640625 23.292969 "/> <path style=" stroke:none;fill-rule:nonzero;fill:rgb(93.72549%,26.666667%,26.666667%);fill-opacity:1;" d="M 28.46875 23.292969 L 26.359375 23.292969 C 26.042969 23.292969 25.789062 23.039062 25.789062 22.722656 C 25.789062 22.410156 26.042969 22.15625 26.359375 22.15625 L 28.46875 22.15625 C 28.785156 22.15625 29.039062 22.410156 29.039062 22.722656 C 29.039062 23.039062 28.785156 23.292969 28.46875 23.292969 Z M 28.46875 23.292969 "/> <path style=" stroke:none;fill-rule:nonzero;fill:rgb(93.72549%,26.666667%,26.666667%);fill-opacity:1;" d="M 37.640625 28.316406 L 35.675781 28.316406 C 35.363281 28.316406 35.105469 28.0625 35.105469 27.75 C 35.105469 27.433594 35.363281 27.179688 35.675781 27.179688 L 37.640625 27.179688 C 37.957031 27.179688 38.210938 27.433594 38.210938 27.75 C 38.210938 28.0625 37.957031 28.316406 37.640625 28.316406 Z M 37.640625 28.316406 "/> <path style=" stroke:none;fill-rule:nonzero;fill:rgb(93.72549%,26.666667%,26.666667%);fill-opacity:1;" d="M 28.46875 28.316406 L 26.359375 28.316406 C 26.042969 28.316406 25.789062 28.0625 25.789062 27.75 C 25.789062 27.433594 26.042969 27.179688 26.359375 27.179688 L 28.46875 27.179688 C 28.785156 27.179688 29.039062 27.433594 29.039062 27.75 C 29.039062 28.0625 28.785156 28.316406 28.46875 28.316406 Z M 28.46875 28.316406 "/> <path style=" stroke:none;fill-rule:nonzero;fill:rgb(93.72549%,26.666667%,26.666667%);fill-opacity:1;" d="M 37.640625 33.339844 L 35.675781 33.339844 C 35.363281 33.339844 35.105469 33.085938 35.105469 32.769531 C 35.105469 32.457031 35.363281 32.203125 35.675781 32.203125 L 37.640625 32.203125 C 37.957031 32.203125 38.210938 32.457031 38.210938 32.769531 C 38.210938 33.085938 37.957031 33.339844 37.640625 33.339844 Z M 37.640625 33.339844 "/> <path style=" stroke:none;fill-rule:nonzero;fill:rgb(93.72549%,26.666667%,26.666667%);fill-opacity:1;" d="M 28.46875 33.339844 L 26.359375 33.339844 C 26.042969 33.339844 25.789062 33.085938 25.789062 32.769531 C 25.789062 32.457031 26.042969 32.203125 26.359375 32.203125 L 28.46875 32.203125 C 28.785156 32.203125 29.039062 32.457031 29.039062 32.769531 C 29.039062 33.085938 28.785156 33.339844 28.46875 33.339844 Z M 28.46875 33.339844 "/> <path style=" stroke:none;fill-rule:nonzero;fill:rgb(93.72549%,26.666667%,26.666667%);fill-opacity:1;" d="M 49.546875 35.671875 L 42.339844 35.671875 C 42.023438 35.671875 41.769531 35.414062 41.769531 35.101562 L 41.769531 20.394531 C 41.769531 20.078125 42.023438 19.824219 42.339844 19.824219 L 49.546875 19.824219 C 49.859375 19.824219 50.113281 20.078125 50.113281 20.394531 L 50.113281 35.101562 C 50.113281 35.414062 49.859375 35.671875 49.546875 35.671875 Z M 42.90625 34.53125 L 48.976562 34.53125 L 48.976562 20.964844 L 42.90625 20.964844 Z M 42.90625 34.53125 "/> <path style=" stroke:none;fill-rule:nonzero;fill:rgb(93.72549%,26.666667%,26.666667%);fill-opacity:1;" d="M 51.511719 23.292969 L 49.546875 23.292969 C 49.230469 23.292969 48.976562 23.039062 48.976562 22.722656 C 48.976562 22.410156 49.230469 22.15625 49.546875 22.15625 L 51.511719 22.15625 C 51.824219 22.15625 52.082031 22.410156 52.082031 22.722656 C 52.082031 23.039062 51.824219 23.292969 51.511719 23.292969 Z M 51.511719 23.292969 "/> <path style=" stroke:none;fill-rule:nonzero;fill:rgb(93.72549%,26.666667%,26.666667%);fill-opacity:1;" d="M 42.335938 23.292969 L 40.226562 23.292969 C 39.910156 23.292969 39.65625 23.039062 39.65625 22.722656 C 39.65625 22.410156 39.910156 22.15625 40.226562 22.15625 L 42.335938 22.15625 C 42.652344 22.15625 42.90625 22.410156 42.90625 22.722656 C 42.90625 23.039062 42.652344 23.292969 42.335938 23.292969 Z M 42.335938 23.292969 "/> <path style=" stroke:none;fill-rule:nonzero;fill:rgb(93.72549%,26.666667%,26.666667%);fill-opacity:1;" d="M 51.511719 28.316406 L 49.546875 28.316406 C 49.230469 28.316406 48.976562 28.0625 48.976562 27.75 C 48.976562 27.433594 49.230469 27.179688 49.546875 27.179688 L 51.511719 27.179688 C 51.824219 27.179688 52.082031 27.433594 52.082031 27.75 C 52.082031 28.0625 51.824219 28.316406 51.511719 28.316406 Z M 51.511719 28.316406 "/> <path style=" stroke:none;fill-rule:nonzero;fill:rgb(93.72549%,26.666667%,26.666667%);fill-opacity:1;" d="M 42.335938 28.316406 L 40.226562 28.316406 C 39.910156 28.316406 39.65625 28.0625 39.65625 27.75 C 39.65625 27.433594 39.910156 27.179688 40.226562 27.179688 L 42.335938 27.179688 C 42.652344 27.179688 42.90625 27.433594 42.90625 27.75 C 42.90625 28.0625 42.652344 28.316406 42.335938 28.316406 Z M 42.335938 28.316406 "/> <path style=" stroke:none;fill-rule:nonzero;fill:rgb(93.72549%,26.666667%,26.666667%);fill-opacity:1;" d="M 51.511719 33.339844 L 49.546875 33.339844 C 49.230469 33.339844 48.976562 33.085938 48.976562 32.769531 C 48.976562 32.457031 49.230469 32.203125 49.546875 32.203125 L 51.511719 32.203125 C 51.824219 32.203125 52.082031 32.457031 52.082031 32.769531 C 52.082031 33.085938 51.824219 33.339844 51.511719 33.339844 Z M 51.511719 33.339844 "/> <path style=" stroke:none;fill-rule:nonzero;fill:rgb(93.72549%,26.666667%,26.666667%);fill-opacity:1;" d="M 42.335938 33.339844 L 40.226562 33.339844 C 39.910156 33.339844 39.65625 33.085938 39.65625 32.769531 C 39.65625 32.457031 39.910156 32.203125 40.226562 32.203125 L 42.335938 32.203125 C 42.652344 32.203125 42.90625 32.457031 42.90625 32.769531 C 42.90625 33.085938 42.652344 33.339844 42.335938 33.339844 Z M 42.335938 33.339844 "/> </g> </svg>

<svg xmlns="http://www.w3.org/2000/svg" width="64" height="64"><path d="M56.46 40.93h-8.933a.57.57 0 0 1-.57-.567l.004-.312a1.13 1.13 0 0 0-.344-.82 1.143 1.143 0 0 0-.82-.344c-.64 0-1.164.523-1.164 1.164v.312a.567.567 0 0 1-.567.567H33.73a.567.567 0 0 1-.566-.567v-.312a1.13 1.13 0 0 0-.344-.82 1.143 1.143 0 0 0-.82-.344c-.64 0-1.164.523-1.164 1.164v.312a.567.567 0 0 1-.566.567H19.934a.567.567 0 0 1-.567-.567v-.312a1.13 1.13 0 0 0-.344-.82 1.143 1.143 0 0 0-.82-.344c-.64 0-1.164.523-1.164 1.164v.312a.567.567 0 0 1-.566.567H7.539a.568.568 0 0 1-.57-.567V29.191c0-.312.254-.57.57-.57h.309a1.158 1.158 0 0 0 1.164-1.16c0-.645-.52-1.164-1.164-1.164h-.309a.568.568 0 0 1-.57-.57v-10.59c0-.317.254-.57.57-.57h48.922c.316 0 .57.253.57.57v10.59c0 .316-.254.57-.57.57h-.313a1.158 1.158 0 0 0-1.16 1.164c0 .64.52 1.16 1.16 1.16h.313c.316 0 .57.258.57.57v11.172a.568.568 0 0 1-.57.567Zm-8.378-1.137h7.813V29.746a2.308 2.308 0 0 1-2.047-2.289c0-.613.242-1.191.675-1.625a2.253 2.253 0 0 1 1.372-.66v-9.469H8.105v9.469a2.304 2.304 0 0 1 1.372 3.914 2.296 2.296 0 0 1-1.372.66v10.047h7.813a2.307 2.307 0 0 1 2.285-2.047 2.29 2.29 0 0 1 1.629.676c.371.371.602.851.656 1.367h9.227A2.304 2.304 0 0 1 32 37.746c.613 0 1.191.238 1.625.676.375.371.605.851.66 1.367h9.227a2.304 2.304 0 0 1 2.285-2.043c.613 0 1.191.238 1.629.676.37.371.601.851.66 1.371Zm6.844-13.559Zm0 0" style="stroke:none;fill-rule:nonzero;fill:#ef4444;fill-opacity:1"/><path d="M54.242 15.703a.571.571 0 0 1-.57-.57v-3.727H10.328v3.727a.568.568 0 1 1-1.137 0V10.84c0-.317.254-.57.567-.57h44.484c.313 0 .57.253.57.57v4.293a.574.574 0 0 1-.57.57Zm0 0" style="stroke:none;fill-rule:nonzero;fill:#ef4444;fill-opacity:1"/><path d="M15.621 13.305a.571.571 0 0 1-.57-.57V10.84a.568.568 0 1 1 1.136 0v1.894a.57.57 0 0 1-.566.57ZM21.078 13.305a.57.57 0 0 1-.566-.57V10.84a.568.568 0 1 1 1.136 0v1.894c0 .313-.253.57-.57.57ZM26.54 13.305a.57.57 0 0 1-.567-.57V10.84a.568.568 0 1 1 1.136 0v1.894c0 .313-.254.57-.57.57ZM32 13.305a.574.574 0 0 1-.57-.57V10.84a.571.571 0 0 1 1.14 0v1.894c0 .313-.258.57-.57.57ZM37.46 13.305a.571.571 0 0 1-.57-.57V10.84a.568.568 0 1 1 1.137 0v1.894a.57.57 0 0 1-.566.57ZM42.922 13.305a.571.571 0 0 1-.57-.57V10.84a.568.568 0 1 1 1.136 0v1.894a.57.57 0 0 1-.566.57ZM48.379 13.305a.57.57 0 0 1-.566-.57V10.84a.568.568 0 1 1 1.136 0v1.894c0 .313-.254.57-.57.57ZM21.809 35.672h-7.207a.571.571 0 0 1-.57-.57V20.395c0-.317.253-.57.57-.57h7.207c.312 0 .566.253.566.57v14.707a.57.57 0 0 1-.566.57Zm-6.641-1.14h6.07V20.964h-6.07Zm0 0" style="stroke:none;fill-rule:nonzero;fill:#ef4444;fill-opacity:1"/><path d="M23.773 23.293H21.81a.568.568 0 1 1 0-1.137h1.964a.568.568 0 1 1 0 1.137ZM14.602 23.293h-2.114a.571.571 0 0 1-.57-.57.57.57 0 0 1 .57-.567h2.114a.568.568 0 0 1 0 1.137ZM23.773 28.316H21.81a.568.568 0 1 1 0-1.136h1.964a.568.568 0 1 1 0 1.137ZM14.602 28.316h-2.114a.57.57 0 0 1-.57-.566c0-.316.258-.57.57-.57h2.114a.568.568 0 0 1 0 1.136ZM23.773 33.34H21.81a.568.568 0 1 1 0-1.137h1.964a.568.568 0 1 1 0 1.137ZM14.602 33.34h-2.114a.571.571 0 0 1-.57-.57.57.57 0 0 1 .57-.567h2.114a.568.568 0 0 1 0 1.137ZM35.676 35.672h-7.207a.574.574 0 0 1-.57-.57V20.395c0-.317.257-.57.57-.57h7.207c.316 0 .57.253.57.57v14.707c0 .312-.254.57-.57.57Zm-6.637-1.14h6.07V20.964h-6.07Zm0 0" style="stroke:none;fill-rule:nonzero;fill:#ef4444;fill-opacity:1"/><path d="M37.64 23.293h-1.964a.571.571 0 0 1-.57-.57.57.57 0 0 1 .57-.567h1.965a.568.568 0 1 1 0 1.137ZM28.469 23.293h-2.11a.568.568 0 1 1 0-1.137h2.11a.568.568 0 1 1 0 1.137ZM37.64 28.316h-1.964a.57.57 0 0 1-.57-.566c0-.316.257-.57.57-.57h1.965a.568.568 0 1 1 0 1.136ZM28.469 28.316h-2.11a.568.568 0 1 1 0-1.136h2.11a.568.568 0 1 1 0 1.136ZM37.64 33.34h-1.964a.571.571 0 0 1-.57-.57.57.57 0 0 1 .57-.567h1.965a.568.568 0 1 1 0 1.137ZM28.469 33.34h-2.11a.568.568 0 1 1 0-1.137h2.11a.568.568 0 1 1 0 1.137ZM49.547 35.672H42.34a.571.571 0 0 1-.57-.57V20.395c0-.317.253-.57.57-.57h7.207c.312 0 .566.253.566.57v14.707a.57.57 0 0 1-.566.57Zm-6.64-1.14h6.07V20.964h-6.07Zm0 0" style="stroke:none;fill-rule:nonzero;fill:#ef4444;fill-opacity:1"/><path d="M51.512 23.293h-1.965a.568.568 0 1 1 0-1.137h1.965a.57.57 0 0 1 .57.567c0 .316-.258.57-.57.57ZM42.336 23.293h-2.11a.568.568 0 1 1 0-1.137h2.11a.568.568 0 1 1 0 1.137ZM51.512 28.316h-1.965a.568.568 0 1 1 0-1.136h1.965c.312 0 .57.254.57.57a.57.57 0 0 1-.57.566ZM42.336 28.316h-2.11a.568.568 0 1 1 0-1.136h2.11a.568.568 0 1 1 0 1.136ZM51.512 33.34h-1.965a.568.568 0 1 1 0-1.137h1.965a.57.57 0 0 1 .57.567c0 .316-.258.57-.57.57ZM42.336 33.34h-2.11a.568.568 0 1 1 0-1.137h2.11a.568.568 0 1 1 0 1.137Zm0 0" style="stroke:none;fill-rule:nonzero;fill:#ef4444;fill-opacity:1"/></svg>
